X:221 
T:View from Black Head*, The
F:file ID: cre.5/221view
B:CRE5.046 (gan ainm)
N:1:The setting in G is more "treble-friendly" than the original
in D.
N:2:Black Head is at the northwest corner of Co. Clare, opposite
the Aran Islands.
M:6/8
Q:160
R:jig
K:D
B,|A,2F FEF|DFA BAF|EFE EDB,|A,FD EDB,|
A,2F FEF|DFA BAF|EFE EDB,|A,FE D2:|
e|fed BAF|EDE FDB,|A,FF DFA|BAF Ede|
fed BAF|EDE FDB,|A,FF DFA|BAF D2:|

%%%

